assets/imgs/Google Play.svg

<svg width="176" height="55" viewBox="0 0 176 55" fill="none" xmlns="http://www.w3.org/2000/svg">
<mask id="mask0_5233_729" style="mask-type:alpha" maskUnits="userSpaceOnUse" x="0" y="0" width="176" height="55">
<rect x="0.669922" y="0.952637" width="175" height="54" fill="#C4C4C4"/>
</mask>
<g mask="url(#mask0_5233_729)">
<g clip-path="url(#clip0_5233_729)">
<path d="M169.188 54.9526H7.1514C3.52177 54.9526 0.669922 51.8476 0.669922 48.2026V7.70264C0.669922 3.92264 3.6514 0.952637 7.1514 0.952637H169.188C172.818 0.952637 175.67 4.05764 175.67 7.70264V48.2026C175.67 51.9826 172.818 54.9526 169.188 54.9526Z" fill="#2A2A2A"/>
<path d="M169.188 2.03264C172.17 2.03264 174.633 4.59764 174.633 7.70264V48.2026C174.633 51.3076 172.17 53.8726 169.188 53.8726H7.1514C4.16992 53.8726 1.70696 51.3076 1.70696 48.2026V7.70264C1.70696 4.59764 4.16992 2.03264 7.1514 2.03264H169.188ZM169.188 0.952637H7.1514C3.6514 0.952637 0.669922 4.05764 0.669922 7.70264V48.2026C0.669922 51.9826 3.6514 54.9526 7.1514 54.9526H169.188C172.818 54.9526 175.67 51.8476 175.67 48.2026V7.70264C175.67 4.05764 172.818 0.952637 169.188 0.952637Z" fill="#A6A6A6"/>
<path d="M14.1518 11.0586C13.7629 11.4475 13.6333 12.0956 13.6333 12.8734V41.5216C13.6333 42.2993 13.8926 42.9475 14.2814 43.3364L14.4111 43.466L30.4852 27.3919V27.2623V27.1327L14.1518 11.0586Z" fill="url(#paint0_linear_5233_729)"/>
<path d="M35.6708 32.8361L30.356 27.5213V27.2621V27.1324L35.6708 21.8176L35.8004 21.9473L42.1523 25.5769C43.9671 26.6139 43.9671 28.2991 42.1523 29.3361L35.6708 32.8361Z" fill="url(#paint1_linear_5233_729)"/>
<path d="M35.8005 32.7069L30.356 27.2625L14.1523 43.4662C14.8005 44.1143 15.7079 44.1143 16.8746 43.5958L35.8005 32.7069Z" fill="url(#paint2_linear_5233_729)"/>
<path d="M35.8005 21.8175L16.8746 11.0582C15.7079 10.4101 14.8005 10.5397 14.1523 11.1878L30.356 27.2619L35.8005 21.8175Z" fill="url(#paint3_linear_5233_729)"/>
<path opacity="0.2" d="M35.6704 32.5767L16.8741 43.2063C15.837 43.8544 14.9296 43.7248 14.2815 43.2063L14.1519 43.3359L14.2815 43.4655C14.9296 43.9841 15.837 44.1137 16.8741 43.4655L35.6704 32.5767Z" fill="#2A2A2A"/>
<path opacity="0.12" d="M14.1513 43.2059C13.7624 42.817 13.6328 42.1689 13.6328 41.3911V41.5207C13.6328 42.2985 13.8921 42.9467 14.281 43.3356V43.2059H14.1513Z" fill="#2A2A2A"/>
<path opacity="0.12" d="M42.1514 28.9476L35.6699 32.5773L35.7996 32.7069L42.1514 29.0773C43.0588 28.5587 43.4477 27.9106 43.4477 27.2625C43.4477 27.9106 42.9292 28.4291 42.1514 28.9476Z" fill="#2A2A2A"/>
<path opacity="0.25" d="M16.874 11.188L42.1518 25.5769C42.9296 26.0955 43.4481 26.614 43.4481 27.2621C43.4481 26.614 43.0592 25.9658 42.1518 25.4473L16.874 11.0584C15.0592 10.0214 13.6333 10.7992 13.6333 12.8732V13.0029C13.6333 11.0584 15.0592 10.151 16.874 11.188Z" fill="white"/>
<path d="M84.7356 29.9698C82.0134 29.9698 79.9393 32.0439 79.9393 34.7661C79.9393 37.4884 82.143 39.5624 84.7356 39.5624C87.4579 39.5624 89.5319 37.4884 89.5319 34.7661C89.6616 32.0439 87.4579 29.9698 84.7356 29.9698ZM84.7356 37.7476C83.3097 37.7476 82.0134 36.581 82.0134 34.7661C82.0134 33.081 83.3097 31.7847 84.7356 31.7847C86.1616 31.7847 87.4579 32.9513 87.4579 34.7661C87.4579 36.4513 86.2912 37.7476 84.7356 37.7476ZM74.2356 29.9698C71.5134 29.9698 69.4393 32.0439 69.4393 34.7661C69.4393 37.4884 71.643 39.5624 74.2356 39.5624C76.8282 39.5624 79.0319 37.4884 79.0319 34.7661C79.0319 32.0439 76.8282 29.9698 74.2356 29.9698ZM74.2356 37.7476C72.8097 37.7476 71.5134 36.581 71.5134 34.7661C71.5134 33.081 72.8097 31.7847 74.2356 31.7847C75.6616 31.7847 76.9579 32.9513 76.9579 34.7661C76.9579 36.4513 75.6616 37.7476 74.2356 37.7476ZM61.6616 31.3958V33.4698H66.5875C66.4579 34.6365 66.069 35.4143 65.4208 36.0624C64.7727 36.7106 63.606 37.618 61.6616 37.618C58.6801 37.618 56.3467 35.155 56.3467 32.1735C56.3467 29.1921 58.6801 26.7291 61.6616 26.7291C63.3468 26.7291 64.5134 27.3773 65.2912 28.155L66.7171 26.7291C65.5505 25.5624 63.8653 24.655 61.5319 24.655C57.3838 24.655 53.8838 28.0254 53.8838 32.1735C53.8838 36.3217 57.3838 39.6921 61.5319 39.6921C63.7356 39.6921 65.4208 38.9143 66.7171 37.618C68.0134 36.3217 68.5319 34.3773 68.5319 32.8217C68.5319 32.3032 68.5319 31.9143 68.4023 31.5254H61.6616V31.3958ZM112.995 33.081C112.606 32.0439 111.31 29.9698 108.847 29.9698C106.384 29.9698 104.31 31.9143 104.31 34.7661C104.31 37.4884 106.384 39.5624 109.106 39.5624C111.31 39.5624 112.606 38.2661 113.125 37.4884L111.439 36.4513C110.921 37.2291 110.143 37.7476 109.106 37.7476C108.069 37.7476 107.291 37.2291 106.773 36.3217L113.254 33.5995L112.995 33.081ZM106.384 34.6365C106.384 32.8217 107.81 31.7847 108.847 31.7847C109.625 31.7847 110.402 32.1735 110.662 32.8217L106.384 34.6365ZM101.199 39.3032H103.273V25.1735H101.199V39.3032ZM97.6986 31.0069C97.1801 30.4884 96.2727 29.9698 95.106 29.9698C92.643 29.9698 90.4393 32.0439 90.4393 34.7661C90.4393 37.4884 92.643 39.5624 95.106 39.5624C96.2727 39.5624 97.1801 39.0439 97.6986 38.5254H97.8282V39.1735C97.8282 40.9884 96.7912 42.0254 95.2356 42.0254C93.9393 42.0254 93.1616 41.118 92.7727 40.3402L90.9579 41.118C91.4764 42.4143 92.9023 43.9698 95.2356 43.9698C97.6986 43.9698 99.7727 42.5439 99.7727 38.9143V30.2291H97.8282V31.0069H97.6986ZM95.2356 37.7476C93.8097 37.7476 92.5134 36.581 92.5134 34.8958C92.5134 33.2106 93.6801 31.9143 95.2356 31.9143C96.6616 31.9143 97.8282 33.2106 97.8282 34.8958C97.8282 36.4513 96.7912 37.7476 95.2356 37.7476ZM122.976 25.1735H117.921V39.3032H119.995V33.9884H122.976C125.31 33.9884 127.643 32.3032 127.643 29.581C127.643 26.8587 125.31 25.1735 122.976 25.1735ZM122.976 31.9143H119.995V27.118H122.976C124.532 27.118 125.439 28.4143 125.439 29.581C125.439 30.618 124.532 31.9143 122.976 31.9143ZM136.069 29.9698C134.513 29.9698 132.958 30.618 132.31 32.1735L134.125 32.9513C134.513 32.1735 135.291 31.9143 136.069 31.9143C137.106 31.9143 138.273 32.5624 138.273 33.7291V33.8587C137.884 33.5995 137.106 33.3402 136.069 33.3402C133.995 33.3402 132.05 34.5069 132.05 36.581C132.05 38.5254 133.736 39.6921 135.55 39.6921C136.976 39.6921 137.754 39.0439 138.273 38.2661H138.402V39.3032H140.476V33.8587C140.347 31.3958 138.402 29.9698 136.069 29.9698ZM135.81 37.7476C135.162 37.7476 134.125 37.3587 134.125 36.581C134.125 35.5439 135.291 35.0254 136.328 35.0254C137.236 35.0254 137.754 35.2847 138.273 35.5439C138.143 36.7106 136.976 37.7476 135.81 37.7476ZM147.736 30.2291L145.273 36.3217H145.143L142.68 30.2291H140.347L144.106 38.7847L141.902 43.581H144.106L149.939 30.2291H147.736ZM128.68 39.3032H130.754V25.1735H128.68V39.3032Z" fill="white"/>
</g>
<path d="M92.1294 17.147H93.3486V17.9526H92.0918C91.9271 19.6463 90.971 20.4932 89.2236 20.4932C88.4001 20.4932 87.7537 20.264 87.2847 19.8057C86.7511 19.2829 86.4844 18.4897 86.4844 17.4263C86.4844 16.7065 86.5757 16.0101 86.7583 15.3369L87.8057 15.1382C87.598 15.8507 87.4941 16.5794 87.4941 17.3242C87.4941 18.1836 87.6911 18.8138 88.085 19.2148C88.3965 19.5335 88.8083 19.6929 89.3203 19.6929C90.5163 19.6929 91.1143 18.9481 91.1143 17.4585V12.7803H92.1294V17.147ZM89.2129 13.8491C89.0482 13.8491 88.9085 13.7918 88.7939 13.6772C88.6758 13.5627 88.6167 13.423 88.6167 13.2583C88.6167 13.09 88.6758 12.9468 88.7939 12.8286C88.9085 12.7104 89.0482 12.6514 89.2129 12.6514C89.3776 12.6514 89.519 12.7087 89.6372 12.8232C89.759 12.9414 89.8198 13.0864 89.8198 13.2583C89.8198 13.4194 89.759 13.5591 89.6372 13.6772C89.519 13.7918 89.3776 13.8491 89.2129 13.8491ZM93.1875 17.9526V17.147H94.0576C94.3118 17.147 94.5249 17.1667 94.6968 17.2061C94.1525 16.8623 93.8804 16.2428 93.8804 15.3477C93.8804 14.5885 94.1113 13.9619 94.5732 13.4678C95.071 12.9307 95.7567 12.6621 96.6304 12.6621C98.1987 12.6621 98.9829 13.4839 98.9829 15.1274V17.9526H93.1875ZM97.9946 15.2993C97.9946 14.0747 97.5112 13.4624 96.5444 13.4624C96.036 13.4624 95.6349 13.6307 95.3413 13.9673C95.0477 14.2931 94.9009 14.7336 94.9009 15.2886C94.9009 16.5275 95.5687 17.147 96.9043 17.147H97.9946V15.2993ZM105.45 17.9526C103.527 17.9526 102.565 17.0986 102.565 15.3906C102.565 14.6136 102.793 13.9762 103.248 13.4785C103.745 12.9342 104.442 12.6621 105.337 12.6621C106.143 12.6621 106.88 12.791 107.55 13.0488V17.147H108.769V17.9526H105.45ZM106.556 13.7202C106.198 13.5483 105.756 13.4624 105.229 13.4624C104.721 13.4624 104.32 13.6289 104.026 13.9619C103.733 14.2913 103.586 14.73 103.586 15.2778C103.586 16.5239 104.254 17.147 105.589 17.147H106.556V13.7202ZM108.603 17.147H110.208V12.7803H111.218V17.147H112.926V17.9526H108.603V17.147ZM110.123 19.5908C110.123 19.7555 110.065 19.8952 109.951 20.0098C109.836 20.1279 109.698 20.187 109.537 20.187C109.372 20.187 109.235 20.1297 109.124 20.0151C109.013 19.9041 108.957 19.7627 108.957 19.5908C108.957 19.4297 109.013 19.2936 109.124 19.1826C109.235 19.068 109.372 19.0107 109.537 19.0107C109.698 19.0107 109.836 19.0662 109.951 19.1772C110.065 19.2882 110.123 19.4261 110.123 19.5908ZM111.739 19.5908C111.739 19.7555 111.684 19.8952 111.573 20.0098C111.462 20.1279 111.326 20.187 111.165 20.187C111 20.187 110.86 20.1297 110.746 20.0151C110.631 19.9006 110.574 19.7591 110.574 19.5908C110.574 19.4297 110.631 19.2936 110.746 19.1826C110.86 19.068 111 19.0107 111.165 19.0107C111.326 19.0107 111.462 19.0662 111.573 19.1772C111.684 19.2882 111.739 19.4261 111.739 19.5908ZM112.771 17.147H114.312V10.1968H115.322V17.147H116.53V17.9526H112.771V17.147ZM116.369 17.147H118.491C117.707 16.7961 117.314 16.1479 117.314 15.2026C117.314 14.4757 117.54 13.8813 117.991 13.4194C118.482 12.9146 119.162 12.6621 120.032 12.6621C120.544 12.6621 121.021 12.7427 121.461 12.9038L121.273 13.7202C120.872 13.5412 120.437 13.4517 119.968 13.4517C119.477 13.4517 119.083 13.6038 118.786 13.9082C118.482 14.2161 118.33 14.6333 118.33 15.1597C118.33 15.7541 118.559 16.2249 119.017 16.5723C119.526 16.9554 120.27 17.147 121.251 17.147H122.154V17.9526H116.369V17.147ZM129.867 10.1968H130.882V17.147H132.058V17.9526H130.85C130.649 19.6463 129.754 20.4932 128.164 20.4932C126.359 20.4932 125.457 19.4709 125.457 17.4263C125.457 16.7065 125.548 16.0101 125.731 15.3369L126.778 15.1382C126.571 15.8507 126.467 16.5794 126.467 17.3242C126.467 18.9033 127.065 19.6929 128.261 19.6929C129.331 19.6929 129.867 18.9266 129.867 17.394V10.1968ZM131.892 17.147H133.476V12.7803H134.486V13.21C134.486 13.9691 134.446 14.6261 134.368 15.1812H134.378C134.629 14.3826 135.037 13.756 135.603 13.3013C136.14 12.8752 136.736 12.6621 137.392 12.6621C138.097 12.6621 138.641 12.8823 139.024 13.3228C139.404 13.756 139.594 14.3683 139.594 15.1597C139.594 16.0083 139.343 16.6707 138.842 17.147H140.426V17.9526H131.892V17.147ZM136.489 17.147C137.861 17.147 138.546 16.5096 138.546 15.2349C138.546 14.0532 138.099 13.4624 137.204 13.4624C136.491 13.4624 135.87 13.8545 135.34 14.6387C134.856 15.3512 134.565 16.1873 134.464 17.147H136.489ZM140.206 17.147H144.75C144.8 16.6994 144.825 16.3234 144.825 16.019C144.825 15.1597 144.65 14.5384 144.299 14.1553C143.923 13.7471 143.296 13.543 142.419 13.543C141.982 13.543 141.574 13.568 141.194 13.6182V12.8286C141.581 12.7677 142.018 12.7373 142.505 12.7373C143.683 12.7373 144.539 13.0094 145.072 13.5537C145.577 14.0693 145.83 14.8643 145.83 15.9385C145.83 16.5758 145.771 17.2472 145.652 17.9526H140.206V17.147ZM147.607 10.1968H148.617V17.9526H147.607V10.1968Z" fill="white"/>
</g>
<defs>
<linearGradient id="paint0_linear_5233_729" x1="28.9293" y1="12.6269" x2="7.17438" y2="34.3818" gradientUnits="userSpaceOnUse">
<stop stop-color="#00A0FF"/>
<stop offset="0.00657445" stop-color="#00A1FF"/>
<stop offset="0.2601" stop-color="#00BEFF"/>
<stop offset="0.5122" stop-color="#00D2FF"/>
<stop offset="0.7604" stop-color="#00DFFF"/>
<stop offset="1" stop-color="#00E3FF"/>
</linearGradient>
<linearGradient id="paint1_linear_5233_729" x1="44.5303" y1="27.2641" x2="13.164" y2="27.2641" gradientUnits="userSpaceOnUse">
<stop stop-color="#FFE000"/>
<stop offset="0.4087" stop-color="#FFBD00"/>
<stop offset="0.7754" stop-color="#FFA500"/>
<stop offset="1" stop-color="#FF9C00"/>
</linearGradient>
<linearGradient id="paint2_linear_5233_729" x1="32.854" y1="30.239" x2="3.35264" y2="59.7405" gradientUnits="userSpaceOnUse">
<stop stop-color="#FF3A44"/>
<stop offset="1" stop-color="#C31162"/>
</linearGradient>
<linearGradient id="paint3_linear_5233_729" x1="10.1305" y1="1.56452" x2="23.3041" y2="14.7381" gradientUnits="userSpaceOnUse">
<stop stop-color="#32A071"/>
<stop offset="0.0685" stop-color="#2DA771"/>
<stop offset="0.4762" stop-color="#15CF74"/>
<stop offset="0.8009" stop-color="#06E775"/>
<stop offset="1" stop-color="#00F076"/>
</linearGradient>
<clipPath id="clip0_5233_729">
<rect width="175" height="55.0189" fill="white" transform="translate(0.669922 0.952637)"/>
</clipPath>
</defs>
</svg>

<svg xmlns="http://www.w3.org/2000/svg" width="176" height="55" fill="none"><mask id="a" width="176" height="55" x="0" y="0" maskUnits="userSpaceOnUse" style="mask-type:alpha"><path fill="#C4C4C4" d="M.67.953h175v54H.67z"/></mask><g mask="url(#a)"><g clip-path="url(#b)"><path fill="#2A2A2A" d="M169.188 54.953H7.151c-3.63 0-6.481-3.105-6.481-6.75v-40.5C.67 3.923 3.65.953 7.15.953h162.037c3.63 0 6.482 3.105 6.482 6.75v40.5c0 3.78-2.852 6.75-6.482 6.75"/><path fill="#A6A6A6" d="M169.188 2.033c2.982 0 5.445 2.565 5.445 5.67v40.5c0 3.105-2.463 5.67-5.445 5.67H7.151c-2.981 0-5.444-2.565-5.444-5.67v-40.5c0-3.105 2.463-5.67 5.444-5.67zm0-1.08H7.151C3.651.953.67 4.058.67 7.703v40.5c0 3.78 2.981 6.75 6.481 6.75h162.037c3.63 0 6.482-3.105 6.482-6.75v-40.5c0-3.645-2.852-6.75-6.482-6.75"/><path fill="url(#c)" d="M14.152 11.059c-.39.389-.519 1.037-.519 1.814v28.649c0 .777.26 1.425.648 1.814l.13.13 16.074-16.074v-.26z"/><path fill="url(#d)" d="m35.67 32.836-5.314-5.315v-.389l5.315-5.314.13.13 6.351 3.629c1.815 1.037 1.815 2.722 0 3.76z"/><path fill="url(#e)" d="m35.8 32.707-5.444-5.445-16.204 16.204c.649.648 1.556.648 2.723.13z"/><path fill="url(#f)" d="m35.8 21.818-18.925-10.76c-1.167-.648-2.075-.518-2.723.13l16.204 16.074z"/><path fill="#2A2A2A" d="m35.67 32.577-18.796 10.63c-1.037.647-1.944.518-2.592 0l-.13.129.13.13c.648.518 1.555.648 2.592 0z" opacity=".2"/><path fill="#2A2A2A" d="M14.151 43.206c-.389-.389-.518-1.037-.518-1.815v.13c0 .777.26 1.426.648 1.815v-.13zM42.151 28.948l-6.481 3.63.13.129 6.351-3.63c.908-.518 1.297-1.166 1.297-1.815 0 .649-.519 1.167-1.297 1.686" opacity=".12"/><path fill="#fff" d="m16.874 11.188 25.278 14.389c.778.518 1.296 1.037 1.296 1.685 0-.648-.389-1.296-1.296-1.815L16.874 11.058c-1.815-1.037-3.24-.259-3.24 1.815v.13c0-1.945 1.425-2.852 3.24-1.815" opacity=".25"/><path fill="#fff" d="M84.736 29.97c-2.723 0-4.797 2.074-4.797 4.796s2.204 4.796 4.797 4.796c2.722 0 4.796-2.074 4.796-4.796.13-2.722-2.074-4.796-4.796-4.796m0 7.778c-1.426 0-2.723-1.167-2.723-2.982 0-1.685 1.297-2.981 2.723-2.981s2.722 1.166 2.722 2.981c0 1.685-1.167 2.982-2.722 2.982m-10.5-7.778c-2.723 0-4.797 2.074-4.797 4.796s2.204 4.796 4.797 4.796 4.796-2.074 4.796-4.796-2.204-4.796-4.796-4.796m0 7.778c-1.426 0-2.723-1.167-2.723-2.982 0-1.685 1.297-2.981 2.723-2.981s2.722 1.166 2.722 2.981c0 1.685-1.296 2.982-2.722 2.982m-12.574-6.352v2.074h4.926c-.13 1.166-.519 1.944-1.167 2.592s-1.815 1.556-3.76 1.556c-2.98 0-5.314-2.463-5.314-5.445 0-2.98 2.333-5.444 5.315-5.444 1.685 0 2.851.648 3.63 1.426l1.425-1.426c-1.166-1.167-2.852-2.074-5.185-2.074-4.148 0-7.648 3.37-7.648 7.518 0 4.149 3.5 7.52 7.648 7.52 2.204 0 3.889-.779 5.185-2.075s1.815-3.24 1.815-4.796c0-.519 0-.908-.13-1.297h-6.74zm51.333 1.685c-.389-1.037-1.685-3.111-4.148-3.111s-4.537 1.944-4.537 4.796c0 2.722 2.074 4.796 4.796 4.796 2.204 0 3.5-1.296 4.019-2.074l-1.686-1.037c-.518.778-1.296 1.297-2.333 1.297s-1.815-.519-2.333-1.426l6.481-2.723zm-6.611 1.555c0-1.814 1.426-2.851 2.463-2.851.778 0 1.555.388 1.815 1.037zm-5.185 4.667h2.074v-14.13h-2.074zm-3.5-8.296c-.519-.519-1.426-1.037-2.593-1.037-2.463 0-4.667 2.074-4.667 4.796s2.204 4.796 4.667 4.796c1.167 0 2.074-.518 2.593-1.037h.13v.648c0 1.815-1.038 2.852-2.593 2.852-1.297 0-2.074-.907-2.463-1.685l-1.815.778c.518 1.296 1.944 2.852 4.278 2.852 2.463 0 4.537-1.426 4.537-5.056V30.23h-1.945v.778zm-2.463 6.74c-1.426 0-2.723-1.166-2.723-2.851s1.167-2.982 2.723-2.982c1.426 0 2.592 1.297 2.592 2.982 0 1.555-1.037 2.852-2.592 2.852m27.74-12.573h-5.055v14.13h2.074v-5.316h2.981c2.334 0 4.667-1.685 4.667-4.407s-2.333-4.407-4.667-4.407m0 6.74h-2.981v-4.796h2.981c1.556 0 2.463 1.296 2.463 2.463 0 1.037-.907 2.333-2.463 2.333m13.093-1.944c-1.556 0-3.111.648-3.759 2.203l1.815.778c.388-.778 1.166-1.037 1.944-1.037 1.037 0 2.204.648 2.204 1.815v.13c-.389-.26-1.167-.519-2.204-.519-2.074 0-4.019 1.167-4.019 3.241 0 1.944 1.686 3.111 3.5 3.111 1.426 0 2.204-.648 2.723-1.426h.129v1.037h2.074V33.86c-.129-2.463-2.074-3.89-4.407-3.89m-.259 7.778c-.648 0-1.685-.39-1.685-1.167 0-1.037 1.166-1.556 2.203-1.556.908 0 1.426.26 1.945.519-.13 1.167-1.297 2.204-2.463 2.204m11.926-7.519-2.463 6.093h-.13l-2.463-6.093h-2.333l3.759 8.556-2.204 4.796h2.204l5.833-13.352zm-19.056 9.074h2.074v-14.13h-2.074z"/></g><path fill="#fff" d="M92.13 17.147h1.219v.806h-1.257q-.248 2.54-2.868 2.54-1.236 0-1.94-.687-.8-.784-.8-2.38 0-1.08.274-2.09l1.048-.198a7.8 7.8 0 0 0-.312 2.186q0 1.29.591 1.89.468.48 1.235.479 1.794 0 1.794-2.235V12.78h1.015zm-2.917-3.298a.57.57 0 0 1-.42-.172.56.56 0 0 1-.176-.419q0-.252.177-.43a.56.56 0 0 1 .419-.177q.247 0 .424.172a.58.58 0 0 1 .183.435q0 .242-.183.42a.59.59 0 0 1-.424.171m3.975 4.104v-.806h.87q.381 0 .639.06-.816-.517-.817-1.86 0-1.137.693-1.88.747-.805 2.057-.805 2.353 0 2.353 2.465v2.826zm4.807-2.654q0-1.836-1.45-1.837-.763 0-1.204.505-.44.49-.44 1.322 0 1.858 2.003 1.858h1.09zm7.455 2.654q-2.885 0-2.885-2.562 0-1.166.683-1.912.746-.817 2.089-.817 1.209 0 2.213.387v4.098h1.219v.806zm1.106-4.233q-.537-.258-1.327-.258-.762 0-1.203.5-.44.495-.44 1.316 0 1.869 2.003 1.869h.967zm2.047 3.427h1.605V12.78h1.01v4.367h1.708v.806h-4.323zm1.52 2.444a.57.57 0 0 1-.172.419.56.56 0 0 1-.414.177.55.55 0 0 1-.413-.172.57.57 0 0 1-.167-.424q0-.242.167-.408a.55.55 0 0 1 .413-.172q.242 0 .414.166a.56.56 0 0 1 .172.414m1.616 0a.58.58 0 0 1-.166.419.54.54 0 0 1-.408.177.57.57 0 0 1-.419-.172.57.57 0 0 1-.172-.424q0-.242.172-.408a.57.57 0 0 1 .419-.172q.241 0 .408.166a.56.56 0 0 1 .166.414m1.032-2.444h1.541v-6.95h1.01v6.95h1.208v.806h-3.759zm3.598 0h2.122q-1.176-.526-1.177-1.944 0-1.09.677-1.784.736-.756 2.041-.757.769 0 1.429.242l-.188.816a3.2 3.2 0 0 0-1.305-.268q-.736 0-1.182.456-.456.462-.456 1.252 0 .891.687 1.412.763.575 2.234.575h.903v.806h-5.785zm13.498-6.95h1.015v6.95h1.176v.806h-1.208q-.301 2.54-2.686 2.54-2.707 0-2.707-3.067 0-1.08.274-2.09l1.047-.198a7.8 7.8 0 0 0-.311 2.186q0 2.37 1.794 2.369 1.606 0 1.606-2.299zm2.025 6.95h1.584V12.78h1.01v.43q0 1.14-.118 1.971h.01q.376-1.197 1.225-1.88a2.8 2.8 0 0 1 1.789-.639q1.058 0 1.632.66.57.65.57 1.838 0 1.272-.752 1.987h1.584v.806h-8.534zm4.597 0q2.058 0 2.057-1.912 0-1.773-1.342-1.773-1.07 0-1.864 1.177-.725 1.068-.876 2.508zm3.717 0h4.544q.075-.672.075-1.128 0-1.289-.526-1.864-.564-.612-1.88-.612-.655 0-1.225.075v-.79q.58-.09 1.311-.09 1.767 0 2.567.816.758.773.758 2.384 0 .957-.178 2.015h-5.446zm7.401-6.95h1.01v7.756h-1.01z"/></g><defs><linearGradient id="c" x1="28.929" x2="7.174" y1="12.627" y2="34.382" gradientUnits="userSpaceOnUse"><stop stop-color="#00A0FF"/><stop offset=".007" stop-color="#00A1FF"/><stop offset=".26" stop-color="#00BEFF"/><stop offset=".512" stop-color="#00D2FF"/><stop offset=".76" stop-color="#00DFFF"/><stop offset="1" stop-color="#00E3FF"/></linearGradient><linearGradient id="d" x1="44.53" x2="13.164" y1="27.264" y2="27.264" gradientUnits="userSpaceOnUse"><stop stop-color="#FFE000"/><stop offset=".409" stop-color="#FFBD00"/><stop offset=".775" stop-color="orange"/><stop offset="1" stop-color="#FF9C00"/></linearGradient><linearGradient id="e" x1="32.854" x2="3.353" y1="30.239" y2="59.74" gradientUnits="userSpaceOnUse"><stop stop-color="#FF3A44"/><stop offset="1" stop-color="#C31162"/></linearGradient><linearGradient id="f" x1="10.13" x2="23.304" y1="1.565" y2="14.738" gradientUnits="userSpaceOnUse"><stop stop-color="#32A071"/><stop offset=".069" stop-color="#2DA771"/><stop offset=".476" stop-color="#15CF74"/><stop offset=".801" stop-color="#06E775"/><stop offset="1" stop-color="#00F076"/></linearGradient><clipPath id="b"><path fill="#fff" d="M.67.953h175v55.019H.67z"/></clipPath></defs></svg>
